packages/assets/static/images/icons/share.svg

<svg width="24" height="24" viewBox="0 0 24 24" xmlns="http://www.w3.org/2000/svg">
<path d="M21.7942 9.7983L17.2942 14.2983C17.0829 14.5096 16.7962 14.6284 16.4974 14.6284C16.1985 14.6284 15.9118 14.5096 15.7005 14.2983C15.4891 14.087 15.3704 13.8003 15.3704 13.5014C15.3704 13.2025 15.4891 12.9159 15.7005 12.7045L18.2795 10.1274H15.467C13.7207 10.1268 12.0238 10.7067 10.6431 11.7758C9.26232 12.845 8.27611 14.3428 7.83954 16.0336C7.80261 16.1767 7.73786 16.3111 7.64899 16.4291C7.56012 16.5471 7.44887 16.6465 7.3216 16.7215C7.19432 16.7966 7.05351 16.8458 6.90721 16.8664C6.76091 16.8871 6.61197 16.8787 6.46892 16.8417C6.32586 16.8048 6.19147 16.7401 6.07344 16.6512C5.9554 16.5623 5.85603 16.4511 5.78099 16.3238C5.70595 16.1965 5.65671 16.0557 5.63609 15.9094C5.61546 15.7631 5.62386 15.6142 5.66079 15.4711C6.2212 13.2968 7.48886 11.3706 9.26419 9.99582C11.0395 8.62105 13.2217 7.87578 15.467 7.87736H18.2795L15.7024 5.29736C15.491 5.08602 15.3723 4.79937 15.3723 4.50049C15.3723 4.2016 15.491 3.91496 15.7024 3.70361C15.9137 3.49227 16.2003 3.37354 16.4992 3.37354C16.7981 3.37354 17.0848 3.49227 17.2961 3.70361L21.7961 8.20361C21.901 8.30827 21.9842 8.43262 22.0409 8.56952C22.0976 8.70641 22.1267 8.85317 22.1265 9.00135C22.1264 9.14952 22.0969 9.29621 22.0399 9.43297C21.9829 9.56974 21.8994 9.69389 21.7942 9.7983ZM17.9983 18.3774H4.12329V7.50236C4.12329 7.20399 4.00476 6.91784 3.79379 6.70687C3.58281 6.49589 3.29666 6.37736 2.99829 6.37736C2.69992 6.37736 2.41377 6.49589 2.2028 6.70687C1.99182 6.91784 1.87329 7.20399 1.87329 7.50236V19.5024C1.87329 19.8007 1.99182 20.0869 2.2028 20.2979C2.41377 20.5088 2.69992 20.6274 2.99829 20.6274H17.9983C18.2967 20.6274 18.5828 20.5088 18.7938 20.2979C19.0048 20.0869 19.1233 19.8007 19.1233 19.5024C19.1233 19.204 19.0048 18.9178 18.7938 18.7069C18.5828 18.4959 18.2967 18.3774 17.9983 18.3774Z"/>
</svg>

<svg viewBox="0 0 24 24" xmlns="http://www.w3.org/2000/svg" aria-hidden="true" fill="currentColor" height="24px" width="24px"><path d="m21.794 9.798-4.5 4.5a1.127 1.127 0 1 1-1.594-1.594l2.58-2.577h-2.813a7.875 7.875 0 0 0-7.627 5.907 1.124 1.124 0 1 1-2.18-.563 10.12 10.12 0 0 1 9.807-7.594h2.812l-2.577-2.58a1.127 1.127 0 1 1 1.594-1.593l4.5 4.5a1.125 1.125 0 0 1-.002 1.594m-3.796 8.58H4.123V7.501a1.125 1.125 0 0 0-2.25 0v12a1.125 1.125 0 0 0 1.125 1.125h15a1.125 1.125 0 0 0 0-2.25"/></svg>
